X: 196
T: Shi Duihua
L: 1/16
K: Bb
c'4-c'2> g2 f'2 d'2c'4-c'3 g [I:setbarnb 1]| 
c'2> d'2 c'2 b2 | 
g2> b2 g3 b | 
c'2 c' bc'4 | 
c'2 c' f' b2 b g | 
f f f gb4 | 
b c' b g f d f g | 
c8 | 
c'2c'4b2 | 
c'2> d'2 c'2 b2 | 
g2> b2 g2 b2 | 
c'2 c' bc'4 | 
c'2 c' f' b c' b g | 
f d f gb4 | 
b c' b g f d f g | 
c8 | 
g2 g f d2 f2 | 
g b g fg4 | 
b c' b g f d f g | 
c8 | 
f'2 d' f'c'4 | 
f'2 d' f'c'4 | 
f'2 d' f' g2 b2 | 
c'2 b2c'4 | 
c'2 c' f' b2 g2 | 
c'2 c' f' b2 g2 | 
b c' b g f d f g | 
c8 |]

@@@ Tune index: 9070
